X: 1
T:Willie Bishop  "(c) Iain MacCrimmon Book 4"
M:C|
L:1/8
Q:80
C:R. Abbott
S:Hornpipe
K:HP
|: {g}d3/4B/4|
{gAGAG}A{Gdc}d{g}A3/4d/4{gdedc}d|
{g}f3/4d/4{g}c/4d3/4{g}B3/4{d}G/4{e}G3/4e/4|  !
{gcd}c{g}e3/4A/4{d}c3/4e/4{A}e3/4A/4|
{g}d3/4{e}A/4{d}A3/4d/4{g}f3/4e/4{g}d3/4B/4|
{gAGAG}A{Gdc}d{g}A3/4d/4{gdedc}d|  !
{g}f3/4d/4{g}c/4d3/4{g}B3/4{d}G/4{e}G3/4d/4|
{g}c3/4{d}A/4{e}A3/4{d}c/4{gef}e3/4A/4{g}B3/4c/4|
{gdedc}d{g}d3/4e/4{Gdc}d:| |:  !
{g}A3/4d/4|
{gfg}f{g}A3/4d/4{g}f3/4A/4{g}d3/4f/4|
{a}g3/4B/4{G}B3/4g/4{a}g3/4B/4{g}e3/4d/4|  !
{gcd}c{g}e3/4c/4{g}A3/4{d}c/4{g}e3/4A/4|
{g}d3/4{e}A/4{d}A3/4d/4{g}f3/4a/4g3/4e/4|
{gfg}f{g}A3/4d/4{g}f3/4A/4{g}d3/4f/4|  !
{a}g3/4B/4{G}B3/4g/4{a}g3/4B/4{g}e3/4d/4|
{g}c3/4{d}A/4{e}A3/4{d}c/4{gef}e3/4A/4{g}B3/4c/4|
{gdedc}d{g}d3/4e/4{Gdc}d:| |:  !
{g}f3/4e/4|
{g}d3/4{e}A/4{d}A3/4d/4{g}A/4{d}A3/4{g}f3/4A/4|
{g}A/4{d}A3/4{gde}d3/4A/4{g}B3/4{d}G/4{e}G3/4d/4|  !
{g}c3/4{d}A/4{e}A3/4d/4{g}c/4{d}A3/4{gef}e3/4A/4|
{g}d3/4{e}A/4{d}A3/4d/4{gfg}f{e}f3/4e/4|
{g}d3/4{e}A/4{d}A3/4d/4{g}A/4{d}A3/4{g}f3/4A/4|  !
{g}A/4{d}A3/4{gde}d3/4A/4{g}B3/4{d}G/4{e}G3/4d/4|
{g}c3/4{d}A/4{e}A3/4{d}c/4{gef}e3/4A/4{g}B3/4c/4|
{gdedc}d{g}d3/4e/4{Gdc}d:| |:  !
{g}A3/4d/4|
{gfg}fa3/4f/4{g}d3/4{e}A/4{e}A3/4d/4|
{g}f3/4d/4{g}c/4d3/4{g}B3/4{d}G/4{e}G3/4d/4|  !
{gcd}c{g}e3/4c/4{g}A3/4{d}c/4{g}e3/4A/4|
{g}d3/4{e}A/4{d}A3/4d/4{g}f3/4a/4g3/4e/4|
{gfg}fa3/4f/4{g}d3/4{e}A/4{e}A3/4d/4|  !
{g}f3/4d/4{g}c/4d3/4{g}B3/4{d}G/4{e}G3/4d/4|
{g}c3/4{d}A/4{e}A3/4{d}c/4{gef}e3/4A/4{g}B3/4c/4|
{gdedc}d{g}d3/4e/4{Gdc}d:|  !
